X:1822
L:1/8
Q:1/8=150
M:2/2
K:G
 dc | B2 AB d2 de | =fece d2 e^f | g2 dc BAGB | A2 AG A2 Bc | defd gddB | cBAc B3 A | GBdg ecAF | 
 G2 EF G2 :| dB | G2 EF G2 AB | cBAG F2 dB | G2 EF GBdg | fdef d2 dB | G2 EF gfed | cBAG F2 AF | 
 GBdg ecAF | G2 EF G2 :|

